X: 309
T: Sanctorum meritis
C: Anonim
L: 1/4
M: 3/2
N: Derived from pl-kk--kk-i-284--001_anonim--sanctorum-meritis.krn
V: 1
V: 2 clef=alto
V: 3 clef=tenor
V: 4 clef=bass
V: 5 clef=bass
K: G
[V:1] d2=cBA2 | 
[V:2] G2G2D2 | 
[V:3] =B,2A,G,^F,2 | 
[V:4] G,2=C,2D,2 | 
[V:5] G,2=C,2D,2 | 
[V:1] B2>B2B2 | 
[V:2] D2>D2D2 | 
[V:3] G,2>G,2G,2 | 
[V:4] G,2>G,,2G,,2 | 
[V:5] G,2>G,,2G,,2 | 
[V:1] Bcde^f2 | 
[V:2] G2>G2^FG | 
[V:3] G,A,B,^CD2 | 
[V:4] G,2>E,2D,2 | 
[V:5] G,2>E,2D,2 | 
[V:1] e2>e2!breath!d2 | 
[V:2] A2>A2A2 | 
[V:3] D2>^C2D2 | 
[V:4] A,2>A,,2!breath!D,2 | 
[V:5] A,2>A,,2!breath!D,2 | 
[V:1] A2d2B2 | 
[V:2] D2D2E2 | 
[V:3] ^F,2F,2^G,2 | 
[V:4] D,2B,,2E,2 | 
[V:5] D,2B,,2E,2 | 
[V:1] =c2>B2A2 | 
[V:2] E2>E2^F2 | 
[V:3] A,2>G,2F,2 | 
[V:4] A,,3B,,/C,/D,2 | 
[V:5] A,,3B,,/C,/D,2 | 
[V:1] B2A2G2 | 
[V:2] G2=CDEG | 
[V:3] G,2F,2E,2 | 
[V:4] G,2A,2A,2 | 
[V:5] G,2A,2A,2 | 
[V:1] ^F2>F2E2 | 
[V:2] ^F2>F2G2 | 
[V:3] E,2>^D,2E,2 | 
[V:4] B,2>B,,2E,2 | 
[V:5] B,2>B,,2E,2 | 
[V:1] B2efed | 
[V:2] E2E3E | 
[V:3] z6 | 
[V:4] z6 | 
[V:5] z6 | 
[V:1] ^c2>c2c2 | 
[V:2] E2>E2E2 | 
[V:3] B,2A,2A,2 | 
[V:4] E,2A,B,A,G, | 
[V:5] E,2A,B,A,G, | 
[V:1] A2ded=c | 
[V:2] z6 | 
[V:3] A,2>A,2A,2 | 
[V:4] ^F,2>F,2F,2 | 
[V:5] ^F,2>F,2F,2 | 
[V:1] B2>B2B2 | 
[V:2] D2GAGF [|] 
[V:3] B,2B,3B, | 
[V:4] G,2=B,,3B,, | 
[V:5] G,2=B,,3B,, | 
[V:1] z6 | 
[V:2] E2>E2E2 | 
[V:3] G,2>G,2G,2 | 
[V:4] C,2>C,2C,2 | 
[V:5] C,2>C,2C,2 | 
[V:1] G2cdcB | 
[V:2] E2E2E2 | 
[V:3] E,2A,B,A,G, | 
[V:4] C,2A,,2A,,2 | 
[V:5] C,2A,,2A,,2 | 
[V:1] A2>A2A2 | 
[V:2] F2>E2D2 | 
[V:3] ^F,2>F,2F,2 | 
[V:4] D,2>D,2D,2 | 
[V:5] D,2>D,2!breath!D,2 | 
[V:1] A2>B2=c2 | 
[V:2] D2>D2E2 | 
[V:3] F,2>^G,2A,2 | 
[V:4] D,2>B,,2A,,2 | 
[V:5] D,2>B,,2A,,2 | 
[V:1] B4B2 | 
[V:2] E4E2 | 
[V:3] A,4^G,2 | 
[V:4] E,4E,2 | 
[V:5] E,4E,2 | 
[V:1] !breath!A4e2 | 
[V:2] !breath!E4E2 | 
[V:3] !breath!A,4=C2 | 
[V:4] A,,4=C,2 | 
[V:5] !breath!A,,4=C,2 | 
[V:1] d2!breath!dcBd | 
[V:2] F2!breath!FFG2- | 
[V:3] A,2!breath!A,A,G,B, | 
[V:4] D,2!breath!D,D,E,B,, | 
[V:5] D,4E,B,, | 
[V:1] =c2>B2A2 | 
[V:2] G2>G2F2 | 
[V:3] A,2>G,2F,2 | 
[V:4] C,2>C,2D,2 | 
[V:5] C,2>C,2D,2 | 
[V:1] B2A3A | 
[V:2] G2G2F2 | 
[V:3] G,2=C2A,2 | 
[V:4] B,,2=C,2D,2 | 
[V:5] B,,2C,2D,2 | 
[V:1] !breath!G4B2 | 
[V:2] !breath!G4G2 | 
[V:3] !breath!B,4D2 | 
[V:4] !breath!G,,4G,2 | 
[V:5] !breath!G,,4G,2 | 
[V:1] A2>A2B2 | 
[V:2] F2>F2G2 | 
[V:3] D2>D2D2 | 
[V:4] D,2>D,2G,2 | 
[V:5] D,2>D,2G,2 | 
[V:1] c2A3A | 
[V:2] G2G2F2 | 
[V:3] E2D3D | 
[V:4] C,2D,3D, | 
[V:5] C,2D,3D, | 
[V:1] B6 ||  
[V:2] G6 ||  
[V:3] D6 ||  
[V:4] !fermata!G,,6 ||  
[V:5] !fermata!G,,6 ||  
[V:1] [M:3/2]x6 | 
[V:2] [M:3/2]x6 | 
[V:3] [M:3/2]x6 | 
[V:4] [M:3/2]x6 | 
[V:5] [M:3/2]E,F,G,A,B,E, | 
[V:1] x6 | 
[V:2] x6 | 
[V:3] x6 | 
[V:4] x6 | 
[V:5] B,,2>B,,2E,2 | 
[V:1] x6 | 
[V:2] x6 | 
[V:3] x6 | 
[V:4] x6 | 
[V:5] F,2G,2E,2 | 
[V:1] x6 | 
[V:2] x6 | 
[V:3] x6 | 
[V:4] x6 | 
[V:5] D,2>D,2D,2 | 
[V:1] x6 | 
[V:2] x6 | 
[V:3] x6 | 
[V:4] x6 | 
[V:5] G,,A,,B,,C,D,E, | 
[V:1] x6 | 
[V:2] x6 | 
[V:3] x6 | 
[V:4] x6 | 
[V:5] F,2>F,2G,2 | 
[V:1] x6 | 
[V:2] x6 | 
[V:3] x6 | 
[V:4] x6 | 
[V:5] A,2>A,2A,2 | 
[V:1] x6 | 
[V:2] x6 | 
[V:3] x6 | 
[V:4] x6 | 
[V:5] B,2>B,,2E,2 | 
[V:1] x6 | 
[V:2] x6 | 
[V:3] x6 | 
[V:4] x6 | 
[V:5] z24 | 
[V:1] x6 | 
[V:2] x6 | 
[V:3] x6 | 
[V:4] x6 | 
[V:5]  | 
[V:1] x6 | 
[V:2] x6 | 
[V:3] x6 | 
[V:4] x6 | 
[V:5]  | 
[V:1] x6 | 
[V:2] x6 | 
[V:3] x6 | 
[V:4] x6 | 
[V:5]  | 
[V:1] x6 | 
[V:2] x6 | 
[V:3] x6 | 
[V:4] x6 | 
[V:5] z24 | 
[V:1] x6 | 
[V:2] x6 | 
[V:3] x6 | 
[V:4] x6 | 
[V:5]  | 
[V:1] x6 | 
[V:2] x6 | 
[V:3] x6 | 
[V:4] x6 | 
[V:5]  | 
[V:1] x6 | 
[V:2] x6 | 
[V:3] x6 | 
[V:4] x6 | 
[V:5]  | 
[V:1] x6 | 
[V:2] x6 | 
[V:3] x6 | 
[V:4] x6 | 
[V:5] z6 | 
[V:1] x6 | 
[V:2] x6 | 
[V:3] x6 | 
[V:4] x6 | 
[V:5] E,2=G,2E,2 | 
[V:1] x6 | 
[V:2] x6 | 
[V:3] x6 | 
[V:4] x6 | 
[V:5] B,,2>B,,2E,2 | 
[V:1] x6 | 
[V:2] x6 | 
[V:3] x6 | 
[V:4] x6 | 
[V:5] F,D,E,F,G,D, | 
[V:1] x6 | 
[V:2] x6 | 
[V:3] x6 | 
[V:4] x6 | 
[V:5] A,2>A,,2A,,2 | 
[V:1] x6 | 
[V:2] x6 | 
[V:3] x6 | 
[V:4] x6 | 
[V:5] F,2F,2F,2 | 
[V:1] x6 | 
[V:2] x6 | 
[V:3] x6 | 
[V:4] x6 | 
[V:5] =G,4G,2 | 
[V:1] x6 | 
[V:2] x6 | 
[V:3] x6 | 
[V:4] x6 | 
[V:5] ^G,2G,2G,2 | 
[V:1] x6 | 
[V:2] x6 | 
[V:3] x6 | 
[V:4] x6 | 
[V:5] A,4!breath!A,2 | 
[V:1] x6 | 
[V:2] x6 | 
[V:3] x6 | 
[V:4] x6 | 
[V:5] A,2A,2A,2 | 
[V:1] x6 | 
[V:2] x6 | 
[V:3] x6 | 
[V:4] x6 | 
[V:5] B,2>A,2G,F, | 
[V:1] x6 | 
[V:2] x6 | 
[V:3] x6 | 
[V:4] x6 | 
[V:5] !breath!E,2B,2B,,2 | 
[V:1] x6 | 
[V:2] x6 | 
[V:3] x6 | 
[V:4] x6 | 
[V:5] !breath!E,2G,2E,2 | 
[V:1] x6 | 
[V:2] x6 | 
[V:3] x6 | 
[V:4] x6 | 
[V:5] A,,2A,2E,2 | 
[V:1] x6 | 
[V:2] x6 | 
[V:3] x6 | 
[V:4] x6 | 
[V:5] A,,4A,,2 [|] 
[V:1] x6 ||  
[V:2] x6 ||  
[V:3] x6 ||  
[V:4] x6 ||  
[V:5] !fermata!E,6 ||  
[V:1] x6 | 
[V:2] x6 | 
[V:3] x6 | 
[V:4] x6 | 
[V:5] G,2C,2D,2 | 
[V:1] x6 | 
[V:2] x6 | 
[V:3] x6 | 
[V:4] x6 | 
[V:5] G,,2>G,,2G,,2 | 
[V:1] x6 | 
[V:2] x6 | 
[V:3] x6 | 
[V:4] x6 | 
[V:5] G,2>E,2D,2 | 
[V:1] x6 | 
[V:2] x6 | 
[V:3] x6 | 
[V:4] x6 | 
[V:5] A,2>A,,2D,2 | 
[V:1] x6 | 
[V:2] x6 | 
[V:3] x6 | 
[V:4] x6 | 
[V:5] D,2B,,2E,2 | 
[V:1] x6 | 
[V:2] x6 | 
[V:3] x6 | 
[V:4] x6 | 
[V:5] A,,3B,,/C,/D,2 | 
[V:1] x6 | 
[V:2] x6 | 
[V:3] x6 | 
[V:4] x6 | 
[V:5] G,2A,2A,2 | 
[V:1] x6 | 
[V:2] x6 | 
[V:3] x6 | 
[V:4] x6 | 
[V:5] B,2>B,,2E,2 | 
[V:1] x6 | 
[V:2] x6 | 
[V:3] x6 | 
[V:4] x6 | 
[V:5] z6 | 
[V:1] x6 | 
[V:2] x6 | 
[V:3] x6 | 
[V:4] x6 | 
[V:5] E,2A,B,A,G, | 
[V:1] x6 | 
[V:2] x6 | 
[V:3] x6 | 
[V:4] x6 | 
[V:5] ^F,2>F,2F,2 | 
[V:1] x6 | 
[V:2] x6 | 
[V:3] x6 | 
[V:4] x6 | 
[V:5] G,2B,,3B,, | 
[V:1] x6 | 
[V:2] x6 | 
[V:3] x6 | 
[V:4] x6 | 
[V:5] C,2>C,2C,2 | 
[V:1] x6 | 
[V:2] x6 | 
[V:3] x6 | 
[V:4] x6 | 
[V:5] C,2A,,2A,,2 | 
[V:1] x6 | 
[V:2] x6 | 
[V:3] x6 | 
[V:4] x6 | 
[V:5] D,2>D,2D,2 | 
[V:1] x6 | 
[V:2] x6 | 
[V:3] x6 | 
[V:4] x6 | 
[V:5] D,2>B,,2A,,2 | 
[V:1] x6 | 
[V:2] x6 | 
[V:3] x6 | 
[V:4] x6 | 
[V:5] E,4E,2 | 
[V:1] x6 | 
[V:2] x6 | 
[V:3] x6 | 
[V:4] x6 | 
[V:5] !breath!A,,4C,2 | 
[V:1] x6 | 
[V:2] x6 | 
[V:3] x6 | 
[V:4] x6 | 
[V:5] D,4E,B,, | 
[V:1] x6 | 
[V:2] x6 | 
[V:3] x6 | 
[V:4] x6 | 
[V:5] C,2>C,2D,2 | 
[V:1] x6 | 
[V:2] x6 | 
[V:3] x6 | 
[V:4] x6 | 
[V:5] B,,2C,2D,2 | 
[V:1] x6 | 
[V:2] x6 | 
[V:3] x6 | 
[V:4] x6 | 
[V:5] !breath!G,,4G,2 | 
[V:1] x6 | 
[V:2] x6 | 
[V:3] x6 | 
[V:4] x6 | 
[V:5] D,2>D,2G,2 | 
[V:1] x6 | 
[V:2] x6 | 
[V:3] x6 | 
[V:4] x6 | 
[V:5] C,2D,3D, [|] 
[V:1] x6 ||  
[V:2] x6 ||  
[V:3] x6 ||  
[V:4] x6 ||  
[V:5] !fermata!G,,6 ||  
[V:1] G6 | 
[V:2] E6 | 
[V:3] C6 [|] 
[V:4] C,6 [|] 
[V:5] x6 | 
[V:1] !fermata!G6 |]  
[V:2] !fermata!D6 |]  
[V:3] !fermata!B,6 |]  
[V:4] !fermata!G,,6 |]  
[V:5] x6 |]  

